website/frontend/src/assets/images/alert/error.svg

<svg width="16" height="17" viewBox="0 0 16 17" fill="none" xmlns="http://www.w3.org/2000/svg">
<g clip-path="url(#clip0_966_2770)">
<circle r="5" transform="matrix(1 0 0 -1 8 8.5)" fill="white"/>
<path d="M8 0.5C3.58887 0.5 0 4.08887 0 8.5C0 12.9111 3.58887 16.5 8 16.5C12.4111 16.5 16 12.9111 16 8.5C16 4.08887 12.4111 0.5 8 0.5ZM11.2356 10.7929C11.3658 10.9231 11.3658 11.1342 11.2356 11.2643L10.7644 11.7356C10.6342 11.8658 10.4232 11.8658 10.2929 11.7356L8 9.44272L5.70706 11.7357C5.57684 11.8658 5.36584 11.8658 5.23562 11.7357L4.76434 11.2643C4.63412 11.1342 4.63412 10.9231 4.76434 10.7929L7.05728 8.49997L4.76434 6.20703C4.63412 6.07688 4.63412 5.86581 4.76434 5.73562L5.23562 5.26431C5.36584 5.13416 5.57684 5.13416 5.70706 5.26431L8 7.55725L10.2929 5.26431C10.4232 5.13416 10.6342 5.13416 10.7644 5.26431L11.2357 5.73562C11.3659 5.86578 11.3659 6.07684 11.2357 6.20703L8.94272 8.49997L11.2356 10.7929Z" fill="#F24A4A"/>
</g>
<defs>
<clipPath id="clip0_966_2770">
<rect width="16" height="16" fill="white" transform="translate(0 0.5)"/>
</clipPath>
</defs>
</svg>

<svg width="16" height="17" fill="none" xmlns="http://www.w3.org/2000/svg"><g clip-path="url(#a)"><circle r="5" transform="matrix(1 0 0 -1 8 8.5)" fill="#fff"/><path d="M8 .5c-4.411 0-8 3.589-8 8s3.589 8 8 8 8-3.589 8-8-3.589-8-8-8Zm3.236 10.293c.13.13.13.341 0 .471l-.472.472a.333.333 0 0 1-.471 0L8 9.443l-2.293 2.293a.334.334 0 0 1-.471 0l-.472-.472a.333.333 0 0 1 0-.471L7.057 8.5 4.764 6.207a.333.333 0 0 1 0-.471l.472-.472c.13-.13.34-.13.471 0L8 7.557l2.293-2.293c.13-.13.341-.13.471 0l.472.472c.13.13.13.34 0 .471L8.943 8.5l2.293 2.293Z" fill="#F24A4A"/></g><defs><clipPath id="a"><path fill="#fff" transform="translate(0 .5)" d="M0 0h16v16H0z"/></clipPath></defs></svg>
